communes/922.svg

<?xml version="1.0" encoding="UTF-8" standalone="no"?>
<svg
   xmlns:dc="http://purl.org/dc/elements/1.1/"
   xmlns:cc="http://creativecommons.org/ns#"
   xmlns:rdf="http://www.w3.org/1999/02/22-rdf-syntax-ns#"
   xmlns:svg="http://www.w3.org/2000/svg"
   xmlns="http://www.w3.org/2000/svg"
   xmlns:xlink="http://www.w3.org/1999/xlink"
   xmlns:sodipodi="http://sodipodi.sourceforge.net/DTD/sodipodi-0.dtd"
   xmlns:inkscape="http://www.inkscape.org/namespaces/inkscape"
   height="763"
   width="603"
   version="1.0"
   id="svg20"
   sodipodi:version="0.32"
   inkscape:version="0.46"
   sodipodi:docname="Blumenstein-coat of arms.svg"
   sodipodi:docbase="C:\Users\Camilo\Documents\Escudos de Suiza"
   inkscape:output_extension="org.inkscape.output.svg.inkscape">
  <metadata
     id="metadata31">
    <rdf:RDF>
      <cc:Work
         rdf:about="">
        <dc:format>image/svg+xml</dc:format>
        <dc:type
           rdf:resource="http://purl.org/dc/dcmitype/StillImage" />
        <dc:date>08-AUG-2009</dc:date>
        <dc:creator>
          <cc:Agent>
            <dc:title>Juan G (aliman5040)</dc:title>
          </cc:Agent>
        </dc:creator>
        <cc:license
           rdf:resource="http://creativecommons.org/licenses/GPL/2.0/" />
        <dc:coverage />
        <dc:description />
        <dc:subject>
          <rdf:Bag />
        </dc:subject>
        <dc:language />
        <dc:title>Wappen Gemeinde Blumenstein</dc:title>
      </cc:Work>
      <cc:License
         rdf:about="http://creativecommons.org/licenses/GPL/2.0/">
        <cc:permits
           rdf:resource="http://web.resource.org/cc/Reproduction" />
        <cc:permits
           rdf:resource="http://web.resource.org/cc/Distribution" />
        <cc:requires
           rdf:resource="http://web.resource.org/cc/Notice" />
        <cc:permits
           rdf:resource="http://web.resource.org/cc/DerivativeWorks" />
        <cc:requires
           rdf:resource="http://web.resource.org/cc/ShareAlike" />
        <cc:requires
           rdf:resource="http://web.resource.org/cc/SourceCode" />
      </cc:License>
    </rdf:RDF>
  </metadata>
  <defs
     id="defs29">
    <inkscape:perspective
       sodipodi:type="inkscape:persp3d"
       inkscape:vp_x="0 : 381.5 : 1"
       inkscape:vp_y="0 : 1000 : 0"
       inkscape:vp_z="603 : 381.5 : 1"
       inkscape:persp3d-origin="301.5 : 254.33333 : 1"
       id="perspective5149" />
    <linearGradient
       id="linearGradient2893">
      <stop
         style="stop-color:#ffffff;stop-opacity:0.3137255;"
         offset="0"
         id="stop2895" />
      <stop
         id="stop2897"
         offset="0.19"
         style="stop-color:#ffffff;stop-opacity:0.25098041;" />
      <stop
         style="stop-color:#6b6b6b;stop-opacity:0.1254902;"
         offset="0.60000002"
         id="stop2901" />
      <stop
         style="stop-color:#000000;stop-opacity:0.1254902;"
         offset="1"
         id="stop2899" />
    </linearGradient>
    <radialGradient
       inkscape:collect="always"
       xlink:href="#linearGradient2893"
       id="radialGradient3236"
       gradientUnits="userSpaceOnUse"
       gradientTransform="matrix(1.215027,1.531577e-24,1.464684e-23,1.266667,-839.1924,-490.4894)"
       cx="858.04236"
       cy="579.93323"
       fx="858.04236"
       fy="579.93323"
       r="300" />
    <inkscape:perspective
       id="perspective5197"
       inkscape:persp3d-origin="372.04724 : 350.78739 : 1"
       inkscape:vp_z="744.09448 : 526.18109 : 1"
       inkscape:vp_y="0 : 1000 : 0"
       inkscape:vp_x="0 : 526.18109 : 1"
       sodipodi:type="inkscape:persp3d" />
    <inkscape:perspective
       id="perspective8046"
       inkscape:persp3d-origin="372.04724 : 350.78739 : 1"
       inkscape:vp_z="744.09448 : 526.18109 : 1"
       inkscape:vp_y="0 : 1000 : 0"
       inkscape:vp_x="0 : 526.18109 : 1"
       sodipodi:type="inkscape:persp3d" />
    <inkscape:perspective
       id="perspective9383"
       inkscape:persp3d-origin="372.04724 : 350.78739 : 1"
       inkscape:vp_z="744.09448 : 526.18109 : 1"
       inkscape:vp_y="0 : 1000 : 0"
       inkscape:vp_x="0 : 526.18109 : 1"
       sodipodi:type="inkscape:persp3d" />
    <inkscape:perspective
       id="perspective9513"
       inkscape:persp3d-origin="372.04724 : 350.78739 : 1"
       inkscape:vp_z="744.09448 : 526.18109 : 1"
       inkscape:vp_y="0 : 1000 : 0"
       inkscape:vp_x="0 : 526.18109 : 1"
       sodipodi:type="inkscape:persp3d" />
    <inkscape:perspective
       id="perspective9597"
       inkscape:persp3d-origin="372.04724 : 350.78739 : 1"
       inkscape:vp_z="744.09448 : 526.18109 : 1"
       inkscape:vp_y="0 : 1000 : 0"
       inkscape:vp_x="0 : 526.18109 : 1"
       sodipodi:type="inkscape:persp3d" />
    <inkscape:perspective
       id="perspective9760"
       inkscape:persp3d-origin="372.04724 : 350.78739 : 1"
       inkscape:vp_z="744.09448 : 526.18109 : 1"
       inkscape:vp_y="0 : 1000 : 0"
       inkscape:vp_x="0 : 526.18109 : 1"
       sodipodi:type="inkscape:persp3d" />
    <inkscape:perspective
       id="perspective9857"
       inkscape:persp3d-origin="372.04724 : 350.78739 : 1"
       inkscape:vp_z="744.09448 : 526.18109 : 1"
       inkscape:vp_y="0 : 1000 : 0"
       inkscape:vp_x="0 : 526.18109 : 1"
       sodipodi:type="inkscape:persp3d" />
    <inkscape:perspective
       id="perspective5219"
       inkscape:persp3d-origin="372.04724 : 350.78739 : 1"
       inkscape:vp_z="744.09448 : 526.18109 : 1"
       inkscape:vp_y="0 : 1000 : 0"
       inkscape:vp_x="0 : 526.18109 : 1"
       sodipodi:type="inkscape:persp3d" />
    <inkscape:perspective
       id="perspective6677"
       inkscape:persp3d-origin="372.04724 : 350.78739 : 1"
       inkscape:vp_z="744.09448 : 526.18109 : 1"
       inkscape:vp_y="0 : 1000 : 0"
       inkscape:vp_x="0 : 526.18109 : 1"
       sodipodi:type="inkscape:persp3d" />
    <inkscape:perspective
       id="perspective4201"
       inkscape:persp3d-origin="372.04724 : 350.78739 : 1"
       inkscape:vp_z="744.09448 : 526.18109 : 1"
       inkscape:vp_y="0 : 1000 : 0"
       inkscape:vp_x="0 : 526.18109 : 1"
       sodipodi:type="inkscape:persp3d" />
    <inkscape:perspective
       id="perspective11201"
       inkscape:persp3d-origin="372.04724 : 350.78739 : 1"
       inkscape:vp_z="744.09448 : 526.18109 : 1"
       inkscape:vp_y="0 : 1000 : 0"
       inkscape:vp_x="0 : 526.18109 : 1"
       sodipodi:type="inkscape:persp3d" />
    <inkscape:perspective
       id="perspective2515"
       inkscape:persp3d-origin="372.04724 : 350.78739 : 1"
       inkscape:vp_z="744.09448 : 526.18109 : 1"
       inkscape:vp_y="0 : 1000 : 0"
       inkscape:vp_x="0 : 526.18109 : 1"
       sodipodi:type="inkscape:persp3d" />
    <inkscape:perspective
       id="perspective3393"
       inkscape:persp3d-origin="372.04724 : 350.78739 : 1"
       inkscape:vp_z="744.09448 : 526.18109 : 1"
       inkscape:vp_y="0 : 1000 : 0"
       inkscape:vp_x="0 : 526.18109 : 1"
       sodipodi:type="inkscape:persp3d" />
    <inkscape:perspective
       id="perspective3602"
       inkscape:persp3d-origin="372.04724 : 350.78739 : 1"
       inkscape:vp_z="744.09448 : 526.18109 : 1"
       inkscape:vp_y="0 : 1000 : 0"
       inkscape:vp_x="0 : 526.18109 : 1"
       sodipodi:type="inkscape:persp3d" />
    <inkscape:perspective
       id="perspective3714"
       inkscape:persp3d-origin="372.04724 : 350.78739 : 1"
       inkscape:vp_z="744.09448 : 526.18109 : 1"
       inkscape:vp_y="0 : 1000 : 0"
       inkscape:vp_x="0 : 526.18109 : 1"
       sodipodi:type="inkscape:persp3d" />
  </defs>
  <sodipodi:namedview
     inkscape:window-height="720"
     inkscape:window-width="1280"
     inkscape:pageshadow="2"
     inkscape:pageopacity="0.0"
     guidetolerance="10.0"
     gridtolerance="10.0"
     objecttolerance="10.0"
     borderopacity="1.0"
     bordercolor="#666666"
     pagecolor="#ffffff"
     id="base"
     inkscape:zoom="0.47441758"
     inkscape:cx="457.46842"
     inkscape:cy="375.75233"
     inkscape:window-x="-8"
     inkscape:window-y="-8"
     inkscape:current-layer="layer2"
     showgrid="true"
     showguides="true"
     inkscape:guide-bbox="true">
    <inkscape:grid
       type="xygrid"
       id="grid5151" />
  </sodipodi:namedview>
  <desc
     id="desc22">Coat of Arms of Canton of Freiburg (Fribourg)</desc>
  <g
     inkscape:groupmode="layer"
     id="layer1"
     inkscape:label="Fond écu"
     style="display:inline"
     sodipodi:insensitive="true">
    <path
       id="path1899"
       d="M 1.5,1.49998 L 1.5,460.3679 C 1.5,626.6785 135.81456,761.5 301.49999,761.5 C 467.18543,761.5 601.5,626.6785 601.5,460.3679 L 601.5,1.49998 L 1.5,1.49998 z"
       style="fill:#2b5df2;fill-opacity:1" />
  </g>
  <g
     inkscape:groupmode="layer"
     id="layer2"
     inkscape:label="Meubles"
     style="display:inline"
     sodipodi:insensitive="true">
    <path
       d=""
       style="fill:none;fill-opacity:1;fill-rule:evenodd;stroke:#000000;stroke-width:4.27536249;stroke-miterlimit:4;stroke-dasharray:none;stroke-opacity:1"
       id="path5257"
       sodipodi:nodetypes="cc" />
    <g
       id="g3829">
      <g
         id="g3807">
        <g
           id="g3732"
           style="fill:#fcef3c;fill-opacity:1;stroke:#000000;stroke-opacity:1"
           transform="matrix(4.1017381,0,0,4.1017381,-2630.4153,-2339.0265)">
          <path
             sodipodi:nodetypes="ccccccccccc"
             id="path3724"
             d="M 760,698 L 758,678 C 773,678 768,663 775,649 C 760,649 766,667 758,672 L 757,650 L 753,650 L 752,672 C 745,667 750,649 736,649 C 744,660 736,678 752,678 L 750,698 L 760,698 z"
             style="opacity:1;fill:#fcef3c;fill-opacity:1;fill-rule:nonzero;stroke:#000000;stroke-width:1;stroke-miterlimit:4;stroke-dasharray:none;stroke-opacity:1" />
          <path
             sodipodi:nodetypes="csccccsccssscc"
             id="path3726"
             d="M 785,632 C 782.02223,629.22928 781,625 782,615 C 782.77458,607.25417 773.18987,601.05503 765,610.97149 C 769.78186,604.42282 759.60012,600.94299 759,609 C 761,600 749,600 751,609 C 751,601 740,605 746,611 C 739,602 730.85957,605.06425 730,612 C 729.11968,619.10317 730.32892,629.2312 722.59653,633 C 737.13,635.99322 739.42429,627.22182 739,618 C 739,614 740.94866,612.01197 742.35761,618 C 744.94866,629.01197 744.35798,651.8996 755,651.41581 C 765.19793,650.95221 766,633 768.57396,618 C 769.42265,613.05417 772,613 772.13095,618 C 772,625 772.79572,633.2947 785,632 z"
             style="opacity:1;fill:#fcef3c;fill-opacity:1;fill-rule:nonzero;stroke:#000000;stroke-width:1;stroke-miterlimit:4;stroke-dasharray:none;stroke-opacity:1" />
          <path
             sodipodi:nodetypes="cscccscc"
             id="path3728"
             d="M 756,633 C 758,629 761.8285,622.1715 765,619 C 769,615 764,604 756,611 L 756,624 L 756,611 C 747,604 743,614 746.86719,619.37991 C 749.31959,622.79161 754,629 756,633 L 756,633 z"
             style="opacity:1;fill:#fcef3c;fill-opacity:1;fill-rule:nonzero;stroke:#000000;stroke-width:1;stroke-miterlimit:4;stroke-dasharray:none;stroke-opacity:1" />
          <path
             sodipodi:nodetypes="ccc"
             id="path3730"
             d="M 751,625 C 752,634 751,651 755,651 C 759,651 760,634 760.51235,625"
             style="opacity:1;fill:none;fill-opacity:1;fill-rule:nonzero;stroke:#000000;stroke-width:1;stroke-miterlimit:4;stroke-dasharray:none;stroke-opacity:1" />
        </g>
        <g
           id="g3738"
           transform="matrix(-4.1017381,0,0,4.1017381,3233.4152,-2338.9096)"
           style="fill:#fcef3c;fill-opacity:1;stroke:#000000;stroke-opacity:1">
          <path
             style="opacity:1;fill:#fcef3c;fill-opacity:1;fill-rule:nonzero;stroke:#000000;stroke-width:1;stroke-miterlimit:4;stroke-dasharray:none;stroke-opacity:1"
             d="M 760,698 L 758,678 C 773,678 768,663 775,649 C 760,649 766,667 758,672 L 757,650 L 753,650 L 752,672 C 745,667 750,649 736,649 C 744,660 736,678 752,678 L 750,698 L 760,698 z"
             id="path3740"
             sodipodi:nodetypes="ccccccccccc" />
          <path
             style="opacity:1;fill:#fcef3c;fill-opacity:1;fill-rule:nonzero;stroke:#000000;stroke-width:1;stroke-miterlimit:4;stroke-dasharray:none;stroke-opacity:1"
             d="M 785,632 C 782.02223,629.22928 781,625 782,615 C 782.77458,607.25417 773.18987,601.05503 765,610.97149 C 769.78186,604.42282 759.60012,600.94299 759,609 C 761,600 749,600 751,609 C 751,601 740,605 746,611 C 739,602 730.85957,605.06425 730,612 C 729.11968,619.10317 730.32892,629.2312 722.59653,633 C 737.13,635.99322 739.42429,627.22182 739,618 C 739,614 740.94866,612.01197 742.35761,618 C 744.94866,629.01197 744.35798,651.8996 755,651.41581 C 765.19793,650.95221 766,633 768.57396,618 C 769.42265,613.05417 772,613 772.13095,618 C 772,625 772.79572,633.2947 785,632 z"
             id="path3742"
             sodipodi:nodetypes="csccccsccssscc" />
          <path
             style="opacity:1;fill:#fcef3c;fill-opacity:1;fill-rule:nonzero;stroke:#000000;stroke-width:1;stroke-miterlimit:4;stroke-dasharray:none;stroke-opacity:1"
             d="M 756,633 C 758,629 761.8285,622.1715 765,619 C 769,615 764,604 756,611 L 756,624 L 756,611 C 747,604 743,614 746.86719,619.37991 C 749.31959,622.79161 754,629 756,633 L 756,633 z"
             id="path3744"
             sodipodi:nodetypes="cscccscc" />
          <path
             style="opacity:1;fill:none;fill-opacity:1;fill-rule:nonzero;stroke:#000000;stroke-width:1;stroke-miterlimit:4;stroke-dasharray:none;stroke-opacity:1"
             d="M 751,625 C 752,634 751,651 755,651 C 759,651 760,634 760.51235,625"
             id="path3746"
             sodipodi:nodetypes="ccc" />
        </g>
        <g
           id="g3794"
           transform="translate(-5.8486316,0)">
          <g
             style="fill:#fcef3c;fill-opacity:1;stroke:#000000;stroke-opacity:1"
             transform="matrix(4.1017381,0,0,4.1017381,-2790.3831,-2445.6717)"
             id="g3748">
            <path
               sodipodi:nodetypes="ccccccccccccccccc"
               id="path3750"
               d="M 760,724 L 759,713 C 773,713 770,692 776,684 C 762,684 766,707 758,707 L 758,687 C 772,687 769,672 777.30416,662.04164 C 762.30416,662.04164 765,676 757,681 L 757,650 L 753,650 L 753,681 C 746,676 749,661.66902 735,661.66902 C 745,673 739,687 752,687 L 752,707 C 746,707 751,687 736,684 C 742,693 736,713 751,713 L 750,724 L 760,724 z"
               style="opacity:1;fill:#fcef3c;fill-opacity:1;fill-rule:nonzero;stroke:#000000;stroke-width:1;stroke-miterlimit:4;stroke-dasharray:none;stroke-opacity:1" />
            <path
               sodipodi:nodetypes="csccccscsssssc"
               id="path3752"
               d="M 794,619 C 789,620.71263 784.26154,621.59272 782,615 C 779,606.25454 773.18987,601.05503 765,610.97149 C 769.78186,604.42282 759.60012,600.94299 759,609 C 761,600 749,600 751,609 C 751,601 740,605 746,611 C 739,602 730.85957,605.06425 730,612 C 729.11968,619.10317 720.62373,622.0817 716.44833,619 C 720.62085,631.26354 736.08035,629.04276 739,619 C 740.14156,615.07337 740.94866,615.17374 742.35761,621.16177 C 744.94866,632.17374 744.35798,651.8996 755,651.41581 C 765.19793,650.95221 764.97389,634.10175 766.86133,619 C 767.44654,614.31765 769,617.55085 770.83823,621.55699 C 774.82987,630.25617 789.2643,629.26746 794,619 z"
               style="opacity:1;fill:#fcef3c;fill-opacity:1;fill-rule:nonzero;stroke:#000000;stroke-width:1;stroke-miterlimit:4;stroke-dasharray:none;stroke-opacity:1" />
            <path
               sodipodi:nodetypes="cscccscc"
               id="path3754"
               d="M 756,633 C 758,629 760.8285,622.1715 764,619 C 768,615 764,604 756,611 L 756,624 L 756,611 C 747,604 743,614 746.86719,619.37991 C 749.31959,622.79161 754,629 756,633 L 756,633 z"
               style="opacity:1;fill:#fcef3c;fill-opacity:1;fill-rule:nonzero;stroke:#000000;stroke-width:1;stroke-miterlimit:4;stroke-dasharray:none;stroke-opacity:1" />
            <path
               sodipodi:nodetypes="ccc"
               id="path3756"
               d="M 751,625 C 752,634 751,651 755,651 C 759,651 760,633 760.51235,624"
               style="opacity:1;fill:none;fill-opacity:1;fill-rule:nonzero;stroke:#000000;stroke-width:1;stroke-miterlimit:4;stroke-dasharray:none;stroke-opacity:1" />
          </g>
        </g>
      </g>
      <g
         id="g3825">
        <path
           style="fill:#ffffff;fill-opacity:1;fill-rule:nonzero;stroke:#000000;stroke-width:4.10173798;stroke-miterlimit:4;stroke-dasharray:none;stroke-opacity:1"
           d="M 466.40625,492.125 L 306.15625,708.5625 L 137,493 L 44.21875,615.3125 C 96.681711,702.90348 192.26606,761.5 301.5,761.5 C 411.22168,761.5 507.15902,702.36647 559.46875,614.125 L 466.40625,492.125 z"
           id="path3720" />
        <path
           style="fill:#ffffff;fill-opacity:1;fill-rule:nonzero;stroke:#000000;stroke-width:4.10173798;stroke-miterlimit:4;stroke-dasharray:none;stroke-opacity:1"
           d="M 301.5,494.3125 L 132.8125,709.40625 C 180.88181,742.27774 238.94902,761.5 301.5,761.5 C 364.59737,761.5 423.12513,741.93008 471.4375,708.53125 L 301.5,494.3125 z"
           id="path3722" />
      </g>
    </g>
  </g>
  <g
     inkscape:groupmode="layer"
     id="layer3"
     inkscape:label="Reflet final"
     style="display:inline"
     sodipodi:insensitive="true">
    <path
       style="fill:url(#radialGradient3236);fill-opacity:1"
       d="M 1.5,1.5 L 1.5,460.3679 C 1.5,626.67854 135.81454,761.5 301.49993,761.5 C 467.1854,761.5 601.5,626.67854 601.5,460.3679 L 601.5,1.5 L 1.5,1.5 z "
       id="path2346" />
  </g>
  <g
     inkscape:groupmode="layer"
     id="layer4"
     inkscape:label="Contour final"
     style="display:inline"
     sodipodi:insensitive="true">
    <path
       style="fill:none;fill-opacity:1;stroke:#000000;stroke-width:3;stroke-miterlimit:4;stroke-dasharray:none;stroke-opacity:1"
       d="M 1.5,1.5 L 1.5,460.36794 C 1.5,626.67854 135.81454,761.5 301.49993,761.5 C 467.1854,761.5 601.5,626.67854 601.5,460.36794 L 601.5,1.5 L 1.5,1.5 z"
       id="path3239" />
  </g>
</svg>

<?xml version="1.0" encoding="UTF-8"?>
<svg version="1.0" viewBox="0 0 603 763" xmlns="http://www.w3.org/2000/svg" xmlns:cc="http://creativecommons.org/ns#" xmlns:dc="http://purl.org/dc/elements/1.1/" xmlns:rdf="http://www.w3.org/1999/02/22-rdf-syntax-ns#" xmlns:xlink="http://www.w3.org/1999/xlink">
<metadata>
<rdf:RDF>
<cc:Work rdf:about="">
<dc:format>image/svg+xml</dc:format>
<dc:type rdf:resource="http://purl.org/dc/dcmitype/StillImage"/>
<dc:date>08-AUG-2009</dc:date>
<dc:creator>
<cc:Agent>
<dc:title>Juan G (aliman5040)</dc:title>
</cc:Agent>
</dc:creator>
<cc:license rdf:resource="http://creativecommons.org/licenses/GPL/2.0/"/>
<dc:coverage/>
<dc:description/>
<dc:subject>
<rdf:Bag/>
</dc:subject>
<dc:language/>
<dc:title>Wappen Gemeinde Blumenstein</dc:title>
</cc:Work>
<cc:License rdf:about="http://creativecommons.org/licenses/GPL/2.0/">
<cc:permits rdf:resource="http://web.resource.org/cc/Reproduction"/>
<cc:permits rdf:resource="http://web.resource.org/cc/Distribution"/>
<cc:requires rdf:resource="http://web.resource.org/cc/Notice"/>
<cc:permits rdf:resource="http://web.resource.org/cc/DerivativeWorks"/>
<cc:requires rdf:resource="http://web.resource.org/cc/ShareAlike"/>
<cc:requires rdf:resource="http://web.resource.org/cc/SourceCode"/>
</cc:License>
</rdf:RDF>
</metadata>
<defs>
<radialGradient id="a" cx="858.04" cy="579.93" r="300" gradientTransform="matrix(1.215 1.5316e-24 1.4647e-23 1.2667 -839.19 -490.49)" gradientUnits="userSpaceOnUse">
<stop stop-color="#fff" stop-opacity=".31373" offset="0"/>
<stop stop-color="#fff" stop-opacity=".25098" offset=".19"/>
<stop stop-color="#6b6b6b" stop-opacity=".12549" offset=".6"/>
<stop stop-opacity=".12549" offset="1"/>
</radialGradient>
</defs>
<desc>Coat of Arms of Canton of Freiburg (Fribourg)</desc>
<g>
<path d="m1.5 1.5v458.87c0 166.31 134.31 301.13 300 301.13 165.69 0 300-134.82 300-301.13v-458.87h-600z" fill="#2b5df2"/>
<g transform="matrix(4.1017 0 0 4.1017 -2630.4 -2339)" stroke="#000">
<path d="m760 698-2-20c15 0 10-15 17-29-15 0-9 18-17 23l-1-22h-4l-1 22c-7-5-2-23-16-23 8 11 0 29 16 29l-2 20h10z" fill="#fcef3c"/>
<path d="m785 632c-2.9778-2.7707-4-7-3-17 0.77458-7.7458-8.8101-13.945-17-4.0285 4.7819-6.5487-5.3999-10.028-6-1.9715 2-9-10-9-8 0 0-8-11-4-5 2-7-9-15.14-5.9358-16 1-0.88032 7.1032 0.32892 17.231-7.4035 21 14.533 2.9932 16.828-5.7782 16.403-15 0-4 1.9487-5.988 3.3576 0 2.591 11.012 2.0004 33.9 12.642 33.416 10.198-0.4636 11-18.416 13.574-33.416 0.84869-4.9458 3.426-5 3.557 0-0.13095 7 0.66477 15.295 12.869 14z" fill="#fcef3c"/>
<path d="m756 633c2-4 5.8285-10.828 9-14 4-4-1-15-9-8v13-13c-9-7-13 3-9.1328 8.3799 2.4524 3.4117 7.1328 9.6201 9.1328 13.62z" fill="#fcef3c"/>
<path d="m751 625c1 9 0 26 4 26s5-17 5.5124-26" fill="none"/>
</g>
<g transform="matrix(-4.1017 0 0 4.1017 3233.4 -2338.9)" stroke="#000">
<path d="m760 698-2-20c15 0 10-15 17-29-15 0-9 18-17 23l-1-22h-4l-1 22c-7-5-2-23-16-23 8 11 0 29 16 29l-2 20h10z" fill="#fcef3c"/>
<path d="m785 632c-2.9778-2.7707-4-7-3-17 0.77458-7.7458-8.8101-13.945-17-4.0285 4.7819-6.5487-5.3999-10.028-6-1.9715 2-9-10-9-8 0 0-8-11-4-5 2-7-9-15.14-5.9358-16 1-0.88032 7.1032 0.32892 17.231-7.4035 21 14.533 2.9932 16.828-5.7782 16.403-15 0-4 1.9487-5.988 3.3576 0 2.591 11.012 2.0004 33.9 12.642 33.416 10.198-0.4636 11-18.416 13.574-33.416 0.84869-4.9458 3.426-5 3.557 0-0.13095 7 0.66477 15.295 12.869 14z" fill="#fcef3c"/>
<path d="m756 633c2-4 5.8285-10.828 9-14 4-4-1-15-9-8v13-13c-9-7-13 3-9.1328 8.3799 2.4524 3.4117 7.1328 9.6201 9.1328 13.62z" fill="#fcef3c"/>
<path d="m751 625c1 9 0 26 4 26s5-17 5.5124-26" fill="none"/>
</g>
<g transform="translate(-5.8486)">
<g transform="matrix(4.1017 0 0 4.1017 -2790.4 -2445.7)" stroke="#000">
<path d="m760 724-1-11c14 0 11-21 17-29-14 0-10 23-18 23v-20c14 0 11-15 19.304-24.958-15 0-12.304 13.958-20.304 18.958v-31h-4v31c-7-5-4-19.331-18-19.331 10 11.331 4 25.331 17 25.331v20c-6 0-1-20-16-23 6 9 0 29 15 29l-1 11h10z" fill="#fcef3c"/>
<path d="m794 619c-5 1.7126-9.7385 2.5927-12-4-3-8.7455-8.8101-13.945-17-4.0285 4.7819-6.5487-5.3999-10.028-6-1.9715 2-9-10-9-8 0 0-8-11-4-5 2-7-9-15.14-5.9358-16 1-0.88032 7.1032-9.3763 10.082-13.552 7 4.1725 12.264 19.632 10.043 22.552 0 1.1416-3.9266 1.9487-3.8263 3.3576 2.1618 2.591 11.012 2.0004 30.738 12.642 30.254 10.198-0.4636 9.9739-17.314 11.861-32.416 0.58521-4.6824 2.1387-1.4492 3.9769 2.557 3.9916 8.6992 18.426 7.7105 23.162-2.557z" fill="#fcef3c"/>
<path d="m756 633c2-4 4.8285-10.828 8-14 4-4 0-15-8-8v13-13c-9-7-13 3-9.1328 8.3799 2.4524 3.4117 7.1328 9.6201 9.1328 13.62z" fill="#fcef3c"/>
<path d="m751 625c1 9 0 26 4 26s5-18 5.5124-27" fill="none"/>
</g>
</g>
<g fill="#fff" stroke="#000" stroke-width="4.1017">
<path d="m466.41 492.12-160.25 216.44-169.16-215.56-92.781 122.31c52.463 87.591 148.05 146.19 257.28 146.19 109.72 0 205.66-59.134 257.97-147.38l-93.062-122z"/>
<path d="m301.5 494.31-168.69 215.09c48.069 32.871 106.14 52.094 168.69 52.094 63.097 0 121.63-19.57 169.94-52.969l-169.94-214.22z"/>
</g>
<path d="m1.5 1.5v458.87c0 166.31 134.31 301.13 300 301.13 165.69 0 300-134.82 300-301.13v-458.87h-600z" fill="url(#a)"/>
<path d="m1.5 1.5v458.87c0 166.31 134.31 301.13 300 301.13 165.69 0 300-134.82 300-301.13v-458.87h-600z" fill="none" stroke="#000" stroke-width="3"/>
</g>
</svg>
